src/svgs/medicine.svg

<svg xmlns="http://www.w3.org/2000/svg" viewBox="0 0 24 24" width="512" height="512"><path d="M20 22H4a2 2 0 01-2-2v-9a2 2 0 012-2h16a2 2 0 012 2v9a2 2 0 01-2 2zm0-18a2 2 0 00-2-2H6a2 2 0 00-2 2v3h16zm-4 10h-3v-3h-2v3H8v2h3v3h2v-3h3z"/></svg>

<svg xmlns="http://www.w3.org/2000/svg" viewBox="0 0 24 24"><path d="M20,22H4a2,2,0,0,1-2-2V11A2,2,0,0,1,4,9H20a2,2,0,0,1,2,2v9A2,2,0,0,1,20,22ZM20,4a2,2,0,0,0-2-2H6A2,2,0,0,0,4,4V7H20ZM16,14H13V11H11v3H8v2h3v3h2V16h3Z"/></svg>
